icons/fill-new-drink-coffee.svg

<svg xmlns="http://www.w3.org/2000/svg" width="32px" height="32px" viewBox="0 0 32 32" version="1.1">
    <title>fill-new-drink-coffee</title>
    <g id="fill-new-drink-coffee" stroke-width="1" fill-rule="evenodd">
        <path d="M25.1419335,14 L24.0663395,29.071247 C24.0289605,29.5945525 23.5935195,30 23.0688808,30 L8.9311192,30 C8.40648054,30 7.97103946,29.5945525 7.9336605,29.071247 L6.85693354,14 L25.1419335,14 Z M26.7192236,8 C27.1780912,8 27.5780743,8.31229737 27.6893661,8.75746437 L28.1893661,10.7574644 C28.3233148,11.2932593 27.9975541,11.8361938 27.4617592,11.9701425 C27.3824386,11.9899727 27.3009854,12 27.2192236,12 L4.78077641,12 C4.22849166,12 3.78077641,11.5522847 3.78077641,11 C3.78077641,10.9182382 3.79080376,10.836785 3.81063391,10.7574644 L4.31063391,8.75746437 C4.42192566,8.31229737 4.82190876,8 5.28077641,8 L26.7192236,8 Z M24.9260237,2 C25.4783084,2 25.9260237,2.44771525 25.9260237,3 L25.9234824,3.07124705 L25.7139335,6 L6.28493354,6 L6.07651765,3.07124705 C6.03716899,2.52036582 6.45184807,2.04188996 7.0027293,2.0025413 L7.03833017,2.00063553 L24.9260237,2 Z" id="&#24418;&#29366;" />
    </g>
</svg>

<svg xmlns="http://www.w3.org/2000/svg" viewBox="0 0 32 32"><path fill="currentColor" d="m25.142 14-1.076 15.071a1 1 0 0 1-.997.929H8.93a1 1 0 0 1-.997-.929L6.857 14zm1.577-6a1 1 0 0 1 .97.757l.5 2A1 1 0 0 1 27.22 12H4.781a1 1 0 0 1-.97-1.243l.5-2A1 1 0 0 1 5.28 8zm-1.793-6a1 1 0 0 1 1 1l-.003.071L25.713 6H6.286l-.208-2.929a1 1 0 0 1 .926-1.068L7.038 2z"/></svg>
